X:210
T: Sally's Delight
S: Treoir
Z: B.Black
N: from "O'Farrell's Pocket Companion for the
N: Irish Union Pipes"
M: 4/4
L: 1/8
R: reel
K: D
F2 AF dFAF |F2 AF BEEG | F2 AF dFAF | BGEA FD D2 :|
d2 eg fdec |d2 eg fd B2 | d2 eg fdec | dBAG FA D2 |
d2 eg fdec |d2 fe gfeg | agfe dcBA | Bcde fd d2 ||
